www/assets/icons/html.svg

<svg width="24" height="24" viewBox="0 0 24 24" xmlns="http://www.w3.org/2000/svg" fill='currentColor'><path d="M3.5 9H5V15H3.5V12.5H1.5V15H0V9H1.5V11H3.5V9ZM17.5 9H13C12.45 9 12 9.45 12 10V15H13.5V10.5H14.5V14H16V10.49H17V15H18.5V10C18.5 9.45 18.05 9 17.5 9ZM11 9H6V10.5H7.75V15H9.25V10.5H11V9ZM24 15V13.5H21.5V9H20V15H24Z"/></svg>

<svg xmlns="http://www.w3.org/2000/svg" width="24" height="24" viewBox="0 0 24 24" fill='currentColor'><path d="M3.5 9H5v6H3.5v-2.5h-2V15H0V9h1.5v2h2zm14 0H13c-.55 0-1 .45-1 1v5h1.5v-4.5h1V14H16v-3.51h1V15h1.5v-5c0-.55-.45-1-1-1M11 9H6v1.5h1.75V15h1.5v-4.5H11zm13 6v-1.5h-2.5V9H20v6z"/></svg>
